vendor/shopware/storefront/Resources/app/storefront/dist/assets/icon/default/sort-down.svg

<svg xmlns="http://www.w3.org/2000/svg" width="24" height="24" viewBox="0 0 24 24">
  <path fill="#758CA3" fill-rule="evenodd" d="M3,5 C2.44771525,5 2,4.55228475 2,4 C2,3.44771525 2.44771525,3 3,3 L21,3 C21.5522847,3 22,3.44771525 22,4 C22,4.55228475 21.5522847,5 21,5 L3,5 Z M3,9 C2.44771525,9 2,8.55228475 2,8 C2,7.44771525 2.44771525,7 3,7 L18,7 C18.5522847,7 19,7.44771525 19,8 C19,8.55228475 18.5522847,9 18,9 L3,9 Z M3,13 C2.44771525,13 2,12.5522847 2,12 C2,11.4477153 2.44771525,11 3,11 L15,11 C15.5522847,11 16,11.4477153 16,12 C16,12.5522847 15.5522847,13 15,13 L3,13 Z M3,17 C2.44771525,17 2,16.5522847 2,16 C2,15.4477153 2.44771525,15 3,15 L12,15 C12.5522847,15 13,15.4477153 13,16 C13,16.5522847 12.5522847,17 12,17 L3,17 Z M3,21 C2.44771525,21 2,20.5522847 2,20 C2,19.4477153 2.44771525,19 3,19 L9,19 C9.55228475,19 10,19.4477153 10,20 C10,20.5522847 9.55228475,21 9,21 L3,21 Z"/>
</svg>

<svg xmlns="http://www.w3.org/2000/svg" width="24" height="24" viewBox="0 0 24 24"><path fill="#758CA3" fill-rule="evenodd" d="M3 5c-.5523 0-1-.4477-1-1s.4477-1 1-1h18c.5523 0 1 .4477 1 1s-.4477 1-1 1H3zm0 4c-.5523 0-1-.4477-1-1s.4477-1 1-1h15c.5523 0 1 .4477 1 1s-.4477 1-1 1H3zm0 4c-.5523 0-1-.4477-1-1s.4477-1 1-1h12c.5523 0 1 .4477 1 1s-.4477 1-1 1H3zm0 4c-.5523 0-1-.4477-1-1s.4477-1 1-1h9c.5523 0 1 .4477 1 1s-.4477 1-1 1H3zm0 4c-.5523 0-1-.4477-1-1s.4477-1 1-1h6c.5523 0 1 .4477 1 1s-.4477 1-1 1H3z"/></svg>
